assets/icon-email.svg

<svg xmlns="http://www.w3.org/2000/svg" width="18" height="18"><path fill="#F0DECA" d="M.021 13.486l.021-8.844-.042-.237c0-.101.029-.162.086-.184.086-.049.194-.024.324.077.015 0 .194.14.54.42l3.71 3.042c.352.223.528.453.528.69 0 .114-.036.201-.108.259l-3.624 4.022c-.546.791-.938 1.19-1.176 1.197l-.086-.021c-.115-.043-.173-.183-.173-.421zm.507-10.45c0-.252.288-.378.863-.378h15.196c.115 0 .32.036.615.107.194.065.291.151.291.26 0 .093-.076.201-.227.323l-7.926 6.471c-.044.058-.111.116-.205.173-.194.058-.349 0-.464-.173l-7.948-6.449c-.13-.137-.195-.248-.195-.334zm.421 12.122c-.072-.072-.108-.154-.108-.248 0-.244.205-.586.615-1.024l4.303-4.757c.115-.115.227-.172.334-.172.295 0 .669.302 1.122.905l1.434 1.435c.072.072.147.115.227.13.18.058.341.015.485-.13l1.456-1.435c.194-.251.392-.449.593-.593.237-.173.431-.263.582-.27.115 0 .202.05.259.15l4.314 4.757c.266.309.45.55.55.723.064.137.097.252.097.345 0 .237-.208.359-.625.367h-15.109c-.238-.007-.414-.068-.529-.183zm11.874-6.708c0-.237.172-.468.518-.69l3.731-3.042c.338-.28.514-.42.529-.42.093-.072.172-.108.237-.108l.086.021c.051.029.076.098.076.205l-.021.227.021 8.843c0 .237-.061.378-.183.421l-.086.021c-.237 0-.625-.399-1.165-1.197l-3.646-4.022c-.065-.058-.097-.145-.097-.259z"/></svg>

<?xml version="1.0" encoding="utf-8"?>
<!-- Generator: Adobe Illustrator 16.2.1, SVG Export Plug-In . SVG Version: 6.00 Build 0)  -->
<!DOCTYPE svg PUBLIC "-//W3C//DTD SVG 1.1//EN" "http://www.w3.org/Graphics/SVG/1.1/DTD/svg11.dtd">
<svg version="1.1" id="Layer_1" xmlns="http://www.w3.org/2000/svg" xmlns:xlink="http://www.w3.org/1999/xlink" x="0px" y="0px"
	 width="18px" height="18px" viewBox="0 0 18 18" enable-background="new 0 0 18 18" xml:space="preserve">
<g>
	<path fill="#F0DECA" d="M0.021,13.486l0.021-8.844C0.021,4.549,0.007,4.47,0,4.405c0-0.101,0.029-0.162,0.086-0.184
		C0.172,4.172,0.28,4.197,0.41,4.298c0.015,0,0.194,0.14,0.54,0.42l3.71,3.042c0.352,0.223,0.528,0.453,0.528,0.69
		c0,0.114-0.036,0.201-0.108,0.259l-3.624,4.022c-0.546,0.791-0.938,1.19-1.176,1.197c-0.029,0-0.058-0.007-0.086-0.021
		C0.079,13.864,0.021,13.724,0.021,13.486z M0.528,3.036c0-0.252,0.288-0.378,0.863-0.378h15.196c0.115,0,0.32,0.036,0.615,0.107
		c0.194,0.065,0.291,0.151,0.291,0.26c0,0.093-0.076,0.201-0.227,0.323L9.34,9.819C9.296,9.877,9.229,9.935,9.135,9.992
		c-0.194,0.058-0.349,0-0.464-0.173L0.723,3.37C0.593,3.233,0.528,3.122,0.528,3.036z M0.949,15.158
		c-0.072-0.072-0.108-0.154-0.108-0.248c0-0.244,0.205-0.586,0.615-1.024l4.303-4.757c0.115-0.115,0.227-0.172,0.334-0.172
		c0.295,0,0.669,0.302,1.122,0.905l1.434,1.435c0.072,0.072,0.147,0.115,0.227,0.13c0.18,0.058,0.341,0.015,0.485-0.13l1.456-1.435
		c0.194-0.251,0.392-0.449,0.593-0.593c0.237-0.173,0.431-0.263,0.582-0.27c0.115,0,0.202,0.05,0.259,0.15l4.314,4.757
		c0.266,0.309,0.45,0.55,0.55,0.723c0.064,0.137,0.097,0.252,0.097,0.345c0,0.237-0.208,0.359-0.625,0.367H1.478
		C1.24,15.334,1.064,15.273,0.949,15.158z M12.823,8.45c0-0.237,0.172-0.468,0.518-0.69l3.731-3.042
		c0.338-0.28,0.514-0.42,0.529-0.42c0.093-0.072,0.172-0.108,0.237-0.108c0.029,0,0.057,0.008,0.086,0.021
		C17.975,4.24,18,4.309,18,4.416c0,0.064-0.007,0.141-0.021,0.227L18,13.486c0,0.237-0.061,0.378-0.183,0.421
		c-0.029,0.015-0.058,0.021-0.086,0.021c-0.237,0-0.625-0.399-1.165-1.197L12.92,8.709C12.855,8.651,12.823,8.564,12.823,8.45z"/>
</g>
</svg>
